Styles/icons8-menu.svg

<svg xmlns="http://www.w3.org/2000/svg"  viewBox="0 0 24 24" fill="#fff"><path d="M 4 4 A 1.0001 1.0001 0 1 0 4 6 L 20 6 A 1.0001 1.0001 0 1 0 20 4 L 4 4 z M 4 11 A 1.0001 1.0001 0 1 0 4 13 L 20 13 A 1.0001 1.0001 0 1 0 20 11 L 4 11 z M 4 18 A 1.0001 1.0001 0 1 0 4 20 L 20 20 A 1.0001 1.0001 0 1 0 20 18 L 4 18 z"/></svg>

<svg xmlns="http://www.w3.org/2000/svg" viewBox="0 0 24 24" fill="#fff" xmlns:v="https://vecta.io/nano"><path d="M4 4a1 1 0 1 0 0 2h16a1 1 0 1 0 0-2H4zm0 7a1 1 0 1 0 0 2h16a1 1 0 1 0 0-2H4zm0 7a1 1 0 1 0 0 2h16a1 1 0 1 0 0-2H4z"/></svg>
